static/images/mobile/copyright/wikipedia-wordmark-cv.svg

<svg width="120" height="21" viewBox="0 0 120 21" fill="none" xmlns="http://www.w3.org/2000/svg">
<path fill-rule="evenodd" clip-rule="evenodd" d="M119.887 17.4815C120.038 17.3196 120.038 16.7542 119.887 16.5923C118.126 16.5114 117.697 16.3775 117.698 14.1406V3.34084C117.698 1.10596 118.126 0.971081 119.887 0.88916C120.038 0.72731 120.038 0.160847 119.887 0C119.626 0.0059166 119.387 0.0117912 119.16 0.0173721C118.312 0.0381775 117.629 0.0549469 116.617 0.0549469C115.727 0.0549469 115.101 0.039959 114.367 0.0223465C114.062 0.0150528 113.739 0.00731277 113.371 0C113.219 0.161846 113.219 0.72731 113.371 0.88916C114.729 0.953098 115.297 1.051 115.482 2.11599C115.338 2.55458 115.103 3.04013 114.818 3.42376L107.902 12.635C107.718 12.8309 107.574 12.9238 107.456 12.9318V3.34384C107.456 1.10895 107.883 0.974075 109.646 0.89415C109.795 0.730305 109.795 0.163845 109.646 0.00299454C109.385 0.00889969 109.147 0.0147629 108.919 0.0203362C108.071 0.0411568 107.387 0.0579453 106.374 0.0579453C105.485 0.0579453 104.861 0.042984 104.128 0.0253983C103.823 0.0180893 103.499 0.0103264 103.13 0.00299454C102.979 0.16584 102.979 0.732304 103.13 0.89415C104.89 0.974075 105.32 1.10895 105.32 3.34384V14.1436C105.32 16.3785 104.891 16.5134 103.13 16.5943C102.979 16.7571 102.979 17.3236 103.13 17.4855C103.373 17.4797 103.597 17.4741 103.811 17.4687C104.679 17.4469 105.37 17.4295 106.4 17.4295C107.301 17.4295 107.93 17.4449 108.678 17.4632C108.974 17.4704 109.288 17.4781 109.646 17.4855C109.795 17.3216 109.795 16.7562 109.646 16.5943C108.27 16.5344 107.706 16.4325 107.527 15.3225C107.665 14.8108 107.855 14.5684 108.077 14.2862C108.132 14.2158 108.189 14.1429 108.248 14.0627L115.119 4.90536C115.243 4.74151 115.372 4.61963 115.561 4.55369V14.1416C115.561 16.3765 115.133 16.5114 113.371 16.5923C113.219 16.7542 113.219 17.3196 113.371 17.4815C113.646 17.4754 113.898 17.4694 114.137 17.4637C114.967 17.4438 115.645 17.4275 116.643 17.4275C117.52 17.4275 118.139 17.4421 118.86 17.459C119.173 17.4664 119.506 17.4742 119.887 17.4815ZM12.1927 4.15007C12.1927 2.34578 11.4444 0.0019989 6.65596 0.0019989C6.23264 0.0019989 5.7412 0.0139046 5.2243 0.0264282C4.64085 0.0405617 4.02496 0.055481 3.438 0.0549507C2.51704 0.0549507 1.87354 0.0401306 1.11028 0.0225525C0.806259 0.0155525 0.483246 0.00811386 0.116135 0.000999451C-0.0387115 0.162846 -0.0387115 0.72831 0.116135 0.89016C1.91943 0.97208 2.35703 1.10696 2.35703 3.34284V14.1446C2.35703 16.3805 1.91943 16.5154 0.116135 16.5963C-0.0387115 16.7581 -0.0387115 17.3236 0.116135 17.4855C0.39946 17.4794 0.658142 17.4734 0.903793 17.4676C1.75308 17.4477 2.44675 17.4315 3.46497 17.4315C3.91768 17.4315 4.24545 17.4406 4.63229 17.4513H4.63243H4.63257C5.18985 17.4667 5.8698 17.4855 7.22241 17.4855C12.3476 17.4855 13.7123 14.791 13.7123 12.4742C13.7123 9.88865 11.9869 8.40605 9.74702 7.73269V7.67773C11.0368 6.99538 12.1927 5.61269 12.1927 4.15007ZM6.38821 7.57084H4.498V2.07004C4.498 1.18088 4.498 0.910137 6.72189 0.910137C8.15054 0.910137 10.0158 1.72037 10.0158 4.46977C10.0158 6.75961 8.5072 7.57084 6.38821 7.57084ZM6.618 16.6053C4.83067 16.6053 4.49699 15.6882 4.49699 14.798H4.498V8.48797H6.26132C9.75902 8.48797 11.2156 10.565 11.2156 12.9917C11.2156 14.9608 10.5003 16.6053 6.618 16.6053ZM29.2446 17.4835C29.3655 17.3686 29.3655 16.963 29.2446 16.8491C27.8469 16.7921 27.5082 16.6952 27.5072 15.0967V7.38002C27.5072 5.78353 27.8469 5.68762 29.2446 5.62868C29.3655 5.51479 29.3655 5.10817 29.2446 4.99527C28.951 5.00007 28.6913 5.00532 28.4441 5.01032H28.4439C27.8678 5.02197 27.3594 5.03224 26.647 5.03224C25.8714 5.03224 25.348 5.0214 24.6852 5.00767C24.4943 5.00371 24.2919 4.99952 24.0685 4.99527C23.9486 5.10817 23.9486 5.51479 24.0685 5.62868C25.1485 5.67363 25.598 5.74257 25.7449 6.50584C25.63 6.81755 25.4442 7.16722 25.2184 7.43896L19.7276 14.0197C19.5817 14.1616 19.4678 14.2255 19.3749 14.2315V7.38301C19.3749 5.78453 19.7156 5.69062 21.1143 5.63167C21.2342 5.51678 21.2342 5.11116 21.1143 4.99627C20.8483 5.00115 20.6104 5.00625 20.3846 5.0111H20.3844C19.7782 5.0241 19.2589 5.03524 18.5157 5.03524C17.7057 5.03524 17.1714 5.02339 16.4641 5.00771C16.3 5.00407 16.1265 5.00023 15.9382 4.99627C15.8173 5.11116 15.8173 5.51778 15.9382 5.63167C17.3369 5.68862 17.6775 5.78453 17.6775 7.38301V15.0997C17.6775 16.6972 17.3359 16.7911 15.9382 16.8511C15.8173 16.964 15.8173 17.3716 15.9382 17.4855C16.0872 17.4829 16.2275 17.4802 16.3617 17.4775L16.7036 17.4705C17.2944 17.4582 17.8081 17.4475 18.5357 17.4475C19.3287 17.4475 19.8573 17.4588 20.5417 17.4735L20.8104 17.4792L21.1143 17.4855C21.2342 17.3716 21.2342 16.963 21.1143 16.8511C20.0183 16.8061 19.5737 16.7352 19.4309 15.9399C19.5427 15.5716 19.6933 15.3988 19.8698 15.1963C19.9125 15.1473 19.9567 15.0965 20.0023 15.0408L25.4592 8.49796C25.5561 8.38406 25.659 8.29715 25.8078 8.24819V15.0977C25.8078 16.6952 25.4682 16.7911 24.0695 16.8491C23.9486 16.963 23.9486 17.3686 24.0695 17.4835C24.3477 17.4786 24.5952 17.4735 24.8304 17.4686L24.8323 17.4685L24.8335 17.4685L24.8347 17.4685C25.4253 17.4562 25.9387 17.4455 26.667 17.4455C27.4606 17.4455 27.9908 17.4569 28.6765 17.4716H28.6767L28.8734 17.4758L29.2446 17.4835ZM31.7103 17.0848C31.7103 16.9889 31.7722 16.935 31.8531 16.935L32.3976 16.896C33.2458 16.8351 33.4866 16.6263 33.4866 16.0908V6.47088C33.4866 5.89842 33.1839 5.72658 32.3976 5.66764L31.8741 5.63068C31.7932 5.63068 31.7123 5.57173 31.7123 5.47682V5.11516L31.7532 5.0762L31.9793 5.08098L32.2604 5.08708C32.9913 5.10303 33.5468 5.11516 34.3737 5.11516C35.1304 5.11516 35.6489 5.10392 36.2776 5.09029H36.2777C36.4874 5.08575 36.7092 5.08094 36.9563 5.0762L36.9973 5.11516V5.47682C36.9973 5.57273 36.9353 5.63068 36.8354 5.63068L36.3119 5.66764C35.5057 5.72858 35.203 5.93738 35.203 6.47088V10.4481C35.9293 10.4481 36.8374 10.4281 37.32 10.1614C38.5098 9.54996 38.7926 8.32613 38.9744 7.25614C39.1752 6.06926 39.7417 4.99727 41.3332 4.99727C42.4012 4.99727 42.7658 5.55275 42.7658 5.99333C42.7658 6.54881 42.3002 6.75961 41.8766 6.75961C41.6149 6.75961 41.3332 6.6617 41.1304 6.47088C40.9086 6.26008 40.7477 6.16516 40.486 6.16516C39.8815 6.16516 39.7417 6.79657 39.6368 7.35005C39.415 8.53693 38.9924 10.1794 37.4588 10.7159V10.8118C38.8495 10.8118 39.6368 11.634 40.1793 12.9727C41.2313 15.5543 42.2553 16.8571 42.9616 16.911L43.2843 16.931C43.3862 16.931 43.4462 16.9919 43.4462 17.0848V17.4465L43.4252 17.4855L41.8307 17.4655C40.2582 17.4445 39.5319 15.897 38.6647 13.7919C37.8754 11.8798 37.4948 11.2484 35.196 11.2484V16.0878C35.196 16.6602 35.4997 16.8321 36.3049 16.893L36.8284 16.93C36.9093 16.93 36.9903 16.9889 36.9903 17.0818V17.4435L36.9493 17.4825C35.9802 17.4435 35.3958 17.4435 34.3877 17.4435C33.3807 17.4435 32.7343 17.4435 31.7472 17.4825L31.7063 17.4435L31.7103 17.0848ZM58.9665 17.4835C59.0874 17.3686 59.0874 16.963 58.9665 16.8491C57.5688 16.7921 57.2271 16.6952 57.2271 15.0967V7.38002C57.2271 5.78353 57.5688 5.68762 58.9665 5.62868C59.0874 5.51479 59.0874 5.10817 58.9665 4.99527C58.672 5.00008 58.4118 5.00534 58.1643 5.01035C57.5888 5.02198 57.0815 5.03224 56.3689 5.03224C55.5936 5.03224 55.071 5.02141 54.4089 5.00769L54.4038 5.00758L54.1539 5.00243L53.7914 4.99527C53.6715 5.10817 53.6715 5.51479 53.7914 5.62868C54.8714 5.67363 55.3209 5.74257 55.4688 6.50584C55.3519 6.81755 55.1671 7.16722 54.9403 7.43896L49.4505 14.0197C49.3046 14.1616 49.1887 14.2255 49.0978 14.2315V7.38301C49.0978 5.78453 49.4365 5.69062 50.8352 5.63167C50.955 5.51678 50.955 5.11116 50.8352 4.99627C50.5692 5.00115 50.3313 5.00625 50.1055 5.0111H50.1053C49.4991 5.0241 48.9797 5.03524 48.2366 5.03524C47.4266 5.03524 46.8916 5.02337 46.1837 5.00767L45.9113 5.00166L45.6601 4.99627C45.5392 5.11116 45.5392 5.51778 45.6601 5.63167C47.0587 5.68862 47.3984 5.78453 47.3984 7.38301V15.0997C47.3984 16.6972 47.0577 16.7911 45.6601 16.8511C45.5392 16.964 45.5392 17.3716 45.6601 17.4855C45.9401 17.4806 46.189 17.4754 46.4256 17.4705C47.016 17.4582 47.5293 17.4475 48.2576 17.4475C49.0509 17.4475 49.5797 17.4588 50.2641 17.4735L50.5415 17.4794L50.8352 17.4855C50.955 17.3716 50.955 16.963 50.8352 16.8511C49.7392 16.8061 49.2956 16.7352 49.1518 15.9399C49.2626 15.5721 49.4134 15.3993 49.5898 15.1972C49.6328 15.1479 49.6774 15.0968 49.7232 15.0408L55.1801 8.49796C55.279 8.38406 55.3819 8.29715 55.5297 8.24819V15.0977C55.5297 16.6952 55.189 16.7911 53.7914 16.8491C53.6715 16.963 53.6715 17.3686 53.7914 17.4835C54.0717 17.4786 54.3209 17.4734 54.5576 17.4685L54.558 17.4685C55.1486 17.4562 55.6618 17.4455 56.3899 17.4455C57.1818 17.4455 57.711 17.4568 58.3957 17.4715L58.6662 17.4773L58.9665 17.4835ZM74.4498 4.99727C74.5727 5.11016 74.5727 5.51678 74.4498 5.63068C73.0352 5.69062 72.6895 5.78553 72.6895 7.38202V15.1007C72.6895 16.6982 73.0352 16.7931 74.4498 16.8521C74.5727 16.966 74.5727 17.3726 74.4498 17.4865C74.2673 17.4828 74.0978 17.4792 73.9363 17.4757L73.9301 17.4756C73.2175 17.4604 72.6592 17.4485 71.8213 17.4485C71.1125 17.4485 70.613 17.4588 70.0302 17.4708C69.7801 17.4759 69.5147 17.4814 69.2108 17.4865C69.0899 17.3726 69.0899 16.966 69.2108 16.8521C70.6274 16.7931 70.9731 16.6982 70.9731 15.1007V7.22916C70.9731 6.03729 70.5285 5.80551 70.04 5.80551H66.0558C65.5722 5.80551 65.1246 6.03429 65.1246 7.22916V15.1007C65.1246 16.6982 65.4683 16.7931 66.885 16.8521C67.0059 16.966 67.0059 17.3726 66.885 17.4865C66.6866 17.4825 66.5046 17.4787 66.3325 17.4751L66.3144 17.4747L66.3092 17.4746L66.3071 17.4745C65.6142 17.4598 65.0786 17.4485 64.2764 17.4485C63.5406 17.4485 63.0195 17.4592 62.4205 17.4715L62.0699 17.4786C61.9354 17.4813 61.795 17.4839 61.6459 17.4865C61.525 17.3726 61.525 16.966 61.6459 16.8521C63.0626 16.7931 63.4063 16.6982 63.4063 15.1007V7.38202C63.4063 5.78553 63.0626 5.68862 61.6459 5.63068C61.525 5.51678 61.525 5.11016 61.6459 4.99727C62.659 5.01625 63.7899 5.03424 64.2545 5.03424H71.8413C72.3785 5.03621 73.4044 5.01693 74.3986 4.99823L74.4498 4.99727ZM84.5233 9.22127C84.3994 9.10638 83.9728 9.10638 83.8509 9.22127C83.79 10.2753 83.7271 10.525 81.9937 10.523H80.1375V6.68668C80.1375 6.22611 80.3832 5.84247 80.8708 5.84247H83.0127C84.5433 5.84247 84.868 6.61075 85.3156 7.9335C85.5693 7.96746 85.7901 7.9275 85.9909 7.83659C85.889 7.05133 85.5823 5.20707 85.5423 5.05621C85.5423 5.01725 85.5234 4.99627 85.4604 4.99627C85.1137 5.05322 84.9499 5.0742 84.4634 5.0742H79.2633C79.2633 5.0742 77.6538 5.05622 76.6348 5.03524C76.5099 5.14913 76.5099 5.55474 76.6348 5.66863C78.0594 5.72558 78.4081 5.82049 78.4081 7.41399V15.1067C78.4081 16.6992 78.0604 16.7921 76.6348 16.8521C76.5099 16.964 76.5099 17.3706 76.6348 17.4845C77.6328 17.4675 79.2833 17.4465 79.2833 17.4465H83.6681C84.6462 17.4465 86.2776 17.4845 86.2776 17.4845C86.5624 16.5254 86.8691 15.2616 87.0309 14.2815C86.8211 14.1646 86.5864 14.1226 86.3166 14.1856C85.911 15.5673 85.1967 16.6992 83.6471 16.6992H80.8748C80.4252 16.6992 80.1404 16.3945 80.1404 15.876V11.2534H81.9947C83.7271 11.2534 83.788 11.6949 83.8509 12.5581C83.9728 12.673 84.3994 12.673 84.5233 12.5581C84.5179 12.3765 84.5124 12.2172 84.5073 12.0684L84.5073 12.0677C84.4935 11.6675 84.4823 11.3439 84.4823 10.8707C84.4823 10.3107 84.4971 9.91999 84.5145 9.45721L84.5233 9.22127ZM92.1491 11.666C92.5937 9.47604 92.8374 7.4999 92.8374 6.29005C92.8374 5.88743 92.6526 5.68662 92.1281 5.63866L91.5217 5.57872C91.4198 5.57872 91.3598 5.54076 91.3598 5.46284V5.06121L91.4008 5.02225C91.4008 5.02225 92.8175 5.06121 93.4239 5.06121H98.7069C99.3143 5.06121 100.914 5.02225 100.914 5.02225L100.954 5.06121V5.42487C100.954 5.54076 100.876 5.57173 100.794 5.57872L100.205 5.61769C99.5561 5.65965 99.4552 5.90441 99.4552 6.59676V15.9479C99.4552 16.6582 99.9118 16.872 100.268 16.93C100.706 16.9999 100.862 17.0669 100.875 17.2927L101.017 20.138C100.469 20.138 100.469 20.1569 100.469 20.1569C100.227 19.0829 99.4941 17.4485 97.8777 17.4485H92.0062C90.3238 17.4485 89.7993 19.1599 89.5735 20.1569L89.027 20.138L89.1709 17.2927C89.1849 17.0649 89.3957 16.958 89.5965 16.93L89.5992 16.9296C89.9926 16.8708 90.3165 16.8225 90.6086 16.5443C91.138 16.0458 91.5027 14.6641 92.1491 11.666ZM94.4989 5.82949C93.9514 5.82949 93.7486 6.09723 93.7096 6.57878C93.5458 8.51794 93.2241 10.5141 92.9813 11.8188C92.7787 12.8433 92.5632 13.796 92.3886 14.5677C92.1802 15.4891 92.0302 16.1524 92.0302 16.3715C92.0302 16.6023 92.295 16.6972 92.5757 16.6972H97.0105C97.495 16.6972 97.7388 16.6403 97.7388 15.9299V6.57478C97.7388 5.97935 97.6179 5.82649 96.9915 5.82649L94.4989 5.82949Z" fill="black"/>
</svg>

<svg xmlns="http://www.w3.org/2000/svg" width="120" height="21" fill="none"><path fill="#000" fill-rule="evenodd" d="M119.887 17.482c.151-.162.151-.728 0-.89-1.761-.08-2.19-.214-2.189-2.451V3.34c0-2.235.428-2.37 2.189-2.452.151-.162.151-.728 0-.889l-.727.017c-.848.021-1.531.038-2.543.038-.89 0-1.516-.015-2.25-.033-.305-.007-.628-.015-.996-.022-.152.162-.152.727 0 .89 1.358.063 1.926.161 2.111 1.226a4.79 4.79 0 0 1-.664 1.308l-6.916 9.211c-.184.196-.328.289-.446.297V3.344c0-2.235.427-2.37 2.19-2.45.149-.164.149-.73 0-.891l-.727.017c-.848.021-1.532.038-2.545.038-.889 0-1.513-.015-2.246-.033-.305-.007-.629-.015-.998-.022-.151.163-.151.73 0 .891 1.76.08 2.19.215 2.19 2.45v10.8c0 2.234-.429 2.37-2.19 2.45-.151.163-.151.73 0 .891l.681-.016c.868-.022 1.559-.04 2.589-.04.901 0 1.53.016 2.278.034.296.007.61.015.968.022.149-.163.149-.729 0-.89-1.376-.06-1.94-.162-2.119-1.272.138-.512.328-.755.55-1.037.055-.07.112-.143.171-.223l6.871-9.158c.124-.163.253-.285.442-.351v9.588c0 2.235-.428 2.37-2.19 2.45-.152.162-.152.728 0 .89l.766-.018c.83-.02 1.508-.037 2.506-.037.877 0 1.496.015 2.217.032l1.027.023ZM12.193 4.15c0-1.804-.749-4.148-5.537-4.148-.423 0-.915.012-1.432.024-.583.015-1.199.03-1.786.029C2.517.055 1.874.04 1.11.023.806.016.483.008.116 0c-.155.162-.155.727 0 .89 1.803.081 2.241.216 2.241 2.452v10.802c0 2.236-.438 2.37-2.24 2.451-.156.162-.156.728 0 .89l.787-.018c.85-.02 1.543-.037 2.561-.037.453 0 .78.01 1.167.02.558.016 1.238.034 2.59.034 5.126 0 6.49-2.694 6.49-5.01 0-2.586-1.725-4.069-3.965-4.742v-.055c1.29-.683 2.446-2.065 2.446-3.528ZM6.388 7.57h-1.89v-5.5c0-.89 0-1.16 2.224-1.16 1.429 0 3.294.81 3.294 3.56 0 2.29-1.509 3.1-3.628 3.1Zm.23 9.035c-1.787 0-2.121-.917-2.121-1.807h.001v-6.31h1.763c3.498 0 4.955 2.077 4.955 4.504 0 1.969-.716 3.613-4.598 3.613Zm22.627.878c.12-.114.12-.52 0-.634-1.398-.057-1.737-.154-1.738-1.752V7.38c0-1.596.34-1.692 1.738-1.751.12-.114.12-.52 0-.634l-.8.015h-.001c-.576.012-1.085.022-1.797.022-.776 0-1.299-.01-1.962-.024l-.616-.013c-.12.113-.12.52 0 .634 1.08.045 1.529.114 1.676.877-.115.312-.3.661-.527.933l-5.49 6.58c-.146.143-.26.207-.353.213V7.383c0-1.598.34-1.692 1.74-1.751.12-.115.12-.52 0-.636l-.73.015c-.607.013-1.126.024-1.87.024-.81 0-1.344-.012-2.05-.027l-.527-.012c-.12.115-.12.522 0 .636 1.399.057 1.74.153 1.74 1.751V15.1c0 1.597-.342 1.691-1.74 1.751-.12.113-.12.52 0 .634l.424-.008.342-.006c.59-.013 1.104-.023 1.832-.023.793 0 1.321.01 2.006.026l.268.005.304.006c.12-.113.12-.522 0-.634-1.096-.045-1.54-.116-1.683-.911.112-.368.262-.541.439-.744.043-.049.087-.1.132-.155l5.457-6.543c.097-.114.2-.2.349-.25v6.85c0 1.597-.34 1.693-1.738 1.751-.121.114-.121.52 0 .634.278-.004.525-.01.76-.014h.004c.591-.013 1.105-.024 1.833-.024.794 0 1.324.012 2.01.027l.196.004.372.008Zm2.465-.398c0-.096.062-.15.143-.15l.545-.039c.848-.06 1.089-.27 1.089-.805V6.47c0-.573-.303-.744-1.09-.803l-.523-.037c-.08 0-.162-.06-.162-.154v-.362l.041-.039.226.005.281.006a78.785 78.785 0 0 0 4.017.003c.21-.004.432-.01.68-.014l.04.04v.36c0 .097-.062.155-.162.155l-.523.037c-.806.06-1.109.27-1.109.803v3.977c.726 0 1.634-.02 2.117-.287 1.19-.611 1.473-1.835 1.654-2.905.201-1.187.768-2.259 2.36-2.259 1.067 0 1.432.556 1.432.996 0 .556-.466.767-.89.767-.261 0-.543-.098-.746-.29-.221-.21-.382-.305-.644-.305-.604 0-.744.632-.85 1.185-.221 1.187-.644 2.83-2.177 3.366v.096c1.39 0 2.178.822 2.72 2.16 1.052 2.582 2.076 3.885 2.783 3.939l.322.02c.102 0 .162.06.162.154v.361l-.02.04-1.595-.02c-1.573-.021-2.3-1.569-3.166-3.674-.79-1.912-1.17-2.544-3.469-2.544v4.84c0 .572.304.744 1.109.805l.523.037c.081 0 .162.059.162.152v.361l-.04.04c-.97-.04-1.554-.04-2.562-.04-1.007 0-1.654 0-2.64.04l-.042-.04.004-.358Zm27.257.398c.12-.114.12-.52 0-.634-1.398-.057-1.74-.154-1.74-1.752V7.38c0-1.596.342-1.692 1.74-1.751.12-.114.12-.52 0-.634l-.803.015c-.575.012-1.083.022-1.795.022-.775 0-1.298-.01-1.96-.024h-.005l-.25-.006-.363-.007c-.12.113-.12.52 0 .634 1.08.045 1.53.114 1.678.877a3.345 3.345 0 0 1-.529.933l-5.49 6.58c-.145.143-.261.207-.352.213V7.383c0-1.598.339-1.692 1.737-1.751.12-.115.12-.52 0-.636l-.73.015c-.606.013-1.125.024-1.868.024-.81 0-1.345-.012-2.053-.027l-.273-.006-.25-.006c-.122.115-.122.522 0 .636 1.398.057 1.737.153 1.737 1.751V15.1c0 1.597-.34 1.691-1.738 1.751-.12.113-.12.52 0 .634.28-.004.529-.01.766-.014.59-.013 1.103-.023 1.832-.023.793 0 1.322.01 2.006.026l.277.005.294.006c.12-.113.12-.522 0-.634-1.096-.045-1.54-.116-1.683-.911.11-.368.261-.54.438-.743.043-.05.087-.1.133-.156l5.457-6.543a.772.772 0 0 1 .35-.25v6.85c0 1.597-.341 1.693-1.739 1.751-.12.114-.12.52 0 .634.28-.004.53-.01.767-.015.59-.012 1.104-.023 1.832-.023.792 0 1.321.012 2.006.026l.27.006.3.006ZM74.45 4.997c.123.113.123.52 0 .634-1.415.06-1.76.155-1.76 1.751v7.719c0 1.597.345 1.692 1.76 1.751.123.114.123.52 0 .634l-.514-.01h-.006a88.032 88.032 0 0 0-2.109-.027c-.709 0-1.208.01-1.79.022l-.82.015c-.121-.113-.121-.52 0-.634 1.416-.059 1.762-.154 1.762-1.751V7.229c0-1.192-.445-1.423-.933-1.423h-3.984c-.484 0-.931.228-.931 1.423v7.872c0 1.597.343 1.692 1.76 1.751.12.114.12.52 0 .634l-.553-.01-.018-.001h-.007a85.266 85.266 0 0 0-2.03-.027c-.736 0-1.258.011-1.857.023l-.35.008-.424.008c-.121-.114-.121-.521 0-.635 1.417-.059 1.76-.154 1.76-1.751V7.382c0-1.596-.343-1.693-1.76-1.751-.121-.114-.121-.52 0-.634 1.013.02 2.144.037 2.608.037h7.587c.538.002 1.563-.017 2.558-.036h.05Zm10.073 4.224c-.124-.115-.55-.115-.672 0-.061 1.054-.124 1.304-1.857 1.302h-1.856V6.687c0-.46.245-.845.733-.845h2.142c1.53 0 1.855.769 2.303 2.092.253.033.474-.006.675-.097-.102-.786-.409-2.63-.449-2.78 0-.04-.019-.06-.082-.06-.346.056-.51.077-.997.077h-5.2s-1.61-.018-2.628-.039c-.125.114-.125.52 0 .634 1.424.057 1.773.151 1.773 1.745v7.693c0 1.592-.348 1.685-1.773 1.745-.125.112-.125.519 0 .633.998-.017 2.648-.038 2.648-.038h4.385c.978 0 2.61.038 2.61.038a29 29 0 0 0 .753-3.204.963.963 0 0 0-.714-.095c-.406 1.381-1.12 2.513-2.67 2.513h-2.772c-.45 0-.735-.305-.735-.823v-4.623h1.855c1.732 0 1.793.442 1.856 1.305.122.115.548.115.672 0-.005-.181-.01-.34-.016-.49-.014-.4-.025-.724-.025-1.197 0-.56.015-.951.032-1.414l.01-.236Zm7.626 2.445c.445-2.19.688-4.166.688-5.376 0-.403-.184-.603-.709-.651l-.606-.06c-.102 0-.162-.038-.162-.116V5.06l.04-.039s1.417.04 2.024.04h5.283c.607 0 2.207-.04 2.207-.04l.04.04v.363c0 .116-.078.147-.16.154l-.589.039c-.649.042-.75.286-.75.979v9.35c0 .711.457.925.813.983.438.07.594.137.607.363l.142 2.845c-.548 0-.548.019-.548.019-.242-1.074-.975-2.709-2.591-2.709h-5.872c-1.682 0-2.207 1.712-2.433 2.709l-.546-.019.144-2.845c.014-.228.225-.335.425-.363h.003c.394-.06.718-.107 1.01-.386.529-.498.894-1.88 1.54-4.878Zm2.35-5.837c-.548 0-.75.268-.79.75-.163 1.939-.485 3.935-.728 5.24a101.269 101.269 0 0 1-.592 2.749c-.209.921-.359 1.584-.359 1.804 0 .23.265.325.546.325h4.434c.485 0 .729-.057.729-.767V6.575c0-.596-.121-.749-.748-.749L94.5 5.83Z" clip-rule="evenodd"/></svg>
